!!!ONB: MCCC : ILB0172_03 : Extracted Monophonic Melody
!!!COM: Beethoven, Ludwig van
!!!OPR: Piano Sonata No.11
!!!OMV: 3
!!!SCT: Op.22
!!!ODT: 1799///
**kern
*thru
*staff1
*Ipiano
*>A
*clefG2
*k[b-e-]
*B-:
*M3/4
*MM110
8.d
16e-
=1
2f
16g
16f
16g
16a
=2
4b-
4f
16g
16f
16g
16a
=3
8.b-
16a
8.b-
16cc
8.dd
16ee
=4
4ee
8ff
8r
16ee-
16dd
16ee-
16ff
=5
4gg
4cc
16cc
16b
16cc
16dd
=6
4ee-
4a
16a
16g
16a
16b-
=7
16cc
16b
16cc
16dd
16ee-
16dd
16ee-
16ff
8gg
16r
16a
=8
4cc
8b-
8r
*>A
*M3/4
8.d
16e-
=9
2f
16g
16f
16g
16a
=10
4b-
4f
16g
16f
16g
16a
=11
8.b-
16a
8.b-
16cc
8.dd
16ee
=12
4ee
8ff
8r
16ee-
16dd
16ee-
16ff
=13
4gg
4cc
16cc
16b
16cc
16dd
=14
4ee-
4a
16a
16g
16a
16b-
=15
16cc
16b
16cc
16dd
16ee-
16dd
16ee-
16ff
8gg
16r
16a
=16
4cc
8b-
8r
*>B
16dd
16cc#
16dd
16cc#
=17
16dd
16cc#
16dd
16cc#
16dd
16cc#
16dd
16cc#
16dd
16cc#
16dd
16cc#
=18
8dd
8r
4.ddd
8ccc
=19
8.bb-
16aa
4gg
4ff#
=20
4aa
8gg
8r
16B-
16c-
16B-
16c-
=21
16B-
16c-
16B-
16c-
16B-
16c-
16B-
16c-
16B-
16c-
16B-
16c-
=22
8B-
8r
4.aa-
8gg
=23
8.ff
16ee-
4dd
4cc
=24
4b-
8a
8r
8.d
16e-
=25
2f
16g
16f
16g
16a
=26
4b-
4f
16g
16f
16g
16a
=27
8.b-
16a
8.b-
16cc
8.dd
16ee
=28
4ee
8ff
8r
16ee-
16dd
16ee-
16ff
=29
4gg
4cc
16cc
16b
16cc
16dd
=30
4ee-
4a
16a
16g
16a
16b-
=31
16cc
16b
16cc
16dd
16ee-
16dd
16ee-
16ff
16gg
16ee-
16cc
16a
=32
4b-
4r
16gg
16ff#
16gg
16aa
=33
4bb-
8ff
8r
4ee-
=34
4dd
8f
.
16g
16f#
16g
16a
=35
4b-
8f
8r
4e-
=36
4d
4e-
4d
=37
4e-
8d
8e-
8d
8e-
=38
4d
4b-
*>B
16dd
16cc#
16dd
16cc#
=39
16dd
16cc#
16dd
16cc#
16dd
16cc#
16dd
16cc#
16dd
16cc#
16dd
16cc#
=40
8dd
8r
4.ddd
8ccc
=41
8.bb-
16aa
4gg
4ff#
=42
4aa
8gg
8r
16B-
16c-
16B-
16c-
=43
16B-
16c-
16B-
16c-
16B-
16c-
16B-
16c-
16B-
16c-
16B-
16c-
=44
8B-
8r
4.aa-
8gg
=45
8.ff
16ee-
4dd
4cc
=46
4b-
8a
8r
8.d
16e-
=47
2f
16g
16f
16g
16a
=48
4b-
4f
16g
16f
16g
16a
=49
8.b-
16a
8.b-
16cc
8.dd
16ee
=50
4ee
8ff
8r
16ee-
16dd
16ee-
16ff
=51
4gg
4cc
16cc
16b
16cc
16dd
=52
4ee-
4a
16a
16g
16a
16b-
=53
16cc
16b
16cc
16dd
16ee-
16dd
16ee-
16ff
16gg
16ee-
16cc
16a
=54
4b-
4r
16gg
16ff#
16gg
16aa
=55
4bb-
8ff
8r
4ee-
=56
4dd
8f
.
16g
16f#
16g
16a
=57
4b-
8f
8r
4e-
=58
4d
4e-
4d
=59
4e-
8d
8e-
8d
8e-
=60
4d
4b-
*>C
4r
=61
4r
[2dd
=62
4dd]
[2dd
=63
4dd]
2gg
=64
4ff#
4r
4r
=65
4r
[2gg
=66
4gg]
2ccc#
=67
4ddd
4ddd
4ccc#
=68
4ddd
4r
*>C
4r
=69
4r
[2dd
=70
4dd]
[2dd
=71
4dd]
2gg
=72
4ff#
4r
4r
=73
4r
[2gg
=74
4gg]
2ccc#
=75
4ddd
4ddd
4ccc#
=76
4ddd
4r
*>D
16aa-
16bb-
16aa-
16gg
=77
16ff
16gg
16ff
16ee-
16dd
16ee-
16dd
16cc
16gg
16aa-
16gg
16ff
=78
16ee-
16ff
16ee-
16dd
16cc
16b-
16cc
16dd
16ee-
16ff
16ee-
16dd
=79
16cc
16dd
16cc
16b-
16a
16b-
16a
16g
16dd
16ee-
16dd
16cc
=80
16b-
16cc
16b-
16a
16g
16f#
16g
16a
[4dd
=81
4dd]
[2gg
=82
4gg]
[2ccc
=83
4ccc]
.
.
.
4bb-
.
.
.
4ff#
.
.
.
=84
4gg
.
.
.
4r
*>D
16aa-
16bb-
16aa-
16gg
=85
16ff
16gg
16ff
16ee-
16dd
16ee-
16dd
16cc
16gg
16aa-
16gg
16ff
=86
16ee-
16ff
16ee-
16dd
16cc
16b-
16cc
16dd
16ee-
16ff
16ee-
16dd
=87
16cc
16dd
16cc
16b-
16a
16b-
16a
16g
16dd
16ee-
16dd
16cc
=88
16b-
16cc
16b-
16a
16g
16f#
16g
16a
[4dd
=89
4dd]
[2gg
=90
4gg]
[2ccc
=91
4ccc]
.
.
.
4bb-
.
.
.
4ff#
.
.
.
=92
4gg
.
.
.
4r
*>A
8.d
16e-
=93
2f
16g
16f
16g
16a
=94
4b-
4f
16g
16f
16g
16a
=95
8.b-
16a
8.b-
16cc
8.dd
16ee
=96
4ee
8ff
8r
16ee-
16dd
16ee-
16ff
=97
4gg
4cc
16cc
16b
16cc
16dd
=98
4ee-
4a
16a
16g
16a
16b-
=99
16cc
16b
16cc
16dd
16ee-
16dd
16ee-
16ff
8gg
16r
16a
=100
4cc
8b-
8r
*>B
16dd
16cc#
16dd
16cc#
=101
16dd
16cc#
16dd
16cc#
16dd
16cc#
16dd
16cc#
16dd
16cc#
16dd
16cc#
=102
8dd
8r
4.ddd
8ccc
=103
8.bb-
16aa
4gg
4ff#
=104
4aa
8gg
8r
16B-
16c-
16B-
16c-
=105
16B-
16c-
16B-
16c-
16B-
16c-
16B-
16c-
16B-
16c-
16B-
16c-
=106
8B-
8r
4.aa-
8gg
=107
8.ff
16ee-
4dd
4cc
=108
4b-
8a
8r
8.d
16e-
=109
2f
16g
16f
16g
16a
=110
4b-
4f
16g
16f
16g
16a
=111
8.b-
16a
8.b-
16cc
8.dd
16ee
=112
4ee
8ff
8r
16ee-
16dd
16ee-
16ff
=113
4gg
4cc
16cc
16b
16cc
16dd
=114
4ee-
4a
16a
16g
16a
16b-
=115
16cc
16b
16cc
16dd
16ee-
16dd
16ee-
16ff
16gg
16ee-
16cc
16a
=116
4b-
4r
16gg
16ff#
16gg
16aa
=117
4bb-
8ff
8r
4ee-
=118
4dd
8f
.
16g
16f#
16g
16a
=119
4b-
8f
8r
4e-
=120
4d
4e-
4d
=121
4e-
8d
8e-
8d
8e-
=122
4d
4b-
==
*-
